X:24
T:Penblwydd Biddy - Biddy's Birthday
M:3/4
L:1/8
Q:160
C:Kate Pawsey
R:Mazurka
K:G
E FG | B3 A GF | G2 EE FG | B3 A GF | G3 E FG | B3 A GF | G2 E2 B2 | B3
A GF |1 F2 E :||2 F2 E2 || G2 | G3 B dB | A2 G2 G2 | G3 B GF | F4 GF | G
3 B GE | E2 D2 DD | D3 D DD |1 E4 :||2 E3 ||
